usr/share/icons/hicolor/scalable/apps/big-update.svg

<svg xmlns="http://www.w3.org/2000/svg" xml:space="preserve" width="24" height="24" viewBox="0 0 6.35 6.35"><defs><radialGradient id="a" cx="0" cy="0" r="1" fx="0" fy="0" gradientTransform="matrix(0 16.5 -16.5 0 9 .75)" gradientUnits="userSpaceOnUse" spreadMethod="pad"><stop offset="0" style="stop-opacity:1;stop-color:#fafafa"/><stop offset="1" style="stop-opacity:1;stop-color:#b0b0b0"/></radialGradient><clipPath id="b" clipPathUnits="userSpaceOnUse"><path d="M0 0h19v19H0Z"/></clipPath></defs><path d="M7.453.801a1 1 0 0 1-.258.035 10 10 0 0 0-1.648.266q-3.492.831-4.406 4.3a13.9 13.9 0 0 0-.387 3.59q-.034 1.712.336 3.383c.578 2.477 2.113 3.992 4.594 4.543 1.351.277 2.714.383 4.089.309a11.7 11.7 0 0 0 3.575-.618q2.145-.784 3.101-2.859a9 9 0 0 0 .672-2.488q.204-1.845.086-3.696-.09-1.471-.566-2.867-.844-2.315-3.121-3.254a10.3 10.3 0 0 0-2.836-.636A24 24 0 0 0 7.453.801" style="fill:url(#a);fill-rule:evenodd;stroke:none" transform="scale(.35278)"/><g clip-path="url(#b)" opacity=".226" transform="scale(.35278)"><path d="M10.043 3a.42.42 0 0 0-.277.125l-1.36 1.359-.031.032-.023.035-.024.035v.008a.1.1 0 0 0-.016.031q-.003.007-.007.02l-.012.039a.44.44 0 0 0 0 .203l.012.035v.004q.004.007.007.019.004.005.008.016.013.03.032.055l.023.035.004.004.012.011q.004.011.015.016v.004q.005.006.016.012l1.344 1.343a.417.417 0 0 0 .597 0 .424.424 0 0 0 0-.597l-.566-.567a3.8 3.8 0 0 1 2.883 2.739 3.81 3.81 0 0 1-1.637 4.199.424.424 0 0 0 .457.715 4.66 4.66 0 0 0 1.996-5.137 4.62 4.62 0 0 0-1.582-2.422 4.67 4.67 0 0 0-2.226-.973l.675-.671a.43.43 0 0 0 0-.602.44.44 0 0 0-.32-.125M6.711 5.008a.4.4 0 0 0-.211.066 4.66 4.66 0 0 0-.414 7.559 4.66 4.66 0 0 0 2.226.972l-.675.672a.425.425 0 0 0 0 .598.417.417 0 0 0 .597 0l1.344-1.34.016-.015v-.004q.01-.006.015-.012c.004-.008.012-.012.016-.02.02-.019.031-.043.047-.066v-.004a.03.03 0 0 1 .008-.016q.01-.022.015-.039l.012-.039c0-.008.004-.015.004-.019q.004-.022.008-.043v-.082q-.004-.017-.008-.039c0-.004-.004-.012-.004-.02l-.012-.039q-.005-.018-.015-.035v-.004a1.592 1.592 0 0 0-.055-.09h-.004l-.012-.015-.015-.016-1.36-1.359a.424.424 0 0 0-.597 0 .43.43 0 0 0 0 .601l.566.567a3.808 3.808 0 0 1-1.246-6.938.427.427 0 0 0 .129-.586.43.43 0 0 0-.344-.195zm4.133 1.972a.4.4 0 0 0-.278.114c-.754.847-1.507 1.707-2.261 2.562l-.86-.75a.4.4 0 0 0-.289-.125.4.4 0 0 0-.398.399.44.44 0 0 0 .082.238h-.004l1.137 1.418a.526.526 0 0 0 .804-.008h.004l2.383-3.215a.4.4 0 0 0 .078-.23.4.4 0 0 0-.398-.403" style="fill:none;stroke:#000;stroke-width:.749999;stroke-linecap:round;stroke-linejoin:round;stroke-miterlimit:4;stroke-dasharray:none;stroke-opacity:.289973"/></g><path d="M6.086 12.633a4.7 4.7 0 0 0 2.715 1.015.42.42 0 0 0 .437-.402.417.417 0 0 0-.402-.441A3.81 3.81 0 0 1 5.32 9.988a3.81 3.81 0 0 1 1.637-4.199.427.427 0 0 0 .129-.586.427.427 0 0 0-.586-.129 4.66 4.66 0 0 0-2 5.133h.004c.262.981.828 1.82 1.582 2.426" style="fill:#069;fill-opacity:1;fill-rule:nonzero;stroke:none" transform="scale(.35278)"/><path d="M9.719 13.219a.4.4 0 0 1-.125.297.42.42 0 0 1-.598 0L7.637 12.16a.43.43 0 0 1 0-.601.424.424 0 0 1 .597 0l1.36 1.359a.4.4 0 0 1 .125.301" style="fill:#069;fill-opacity:1;fill-rule:nonzero;stroke:none" transform="scale(.35278)"/><path d="M9.297 12.793a.425.425 0 0 1 .297.723l-1.36 1.359a.417.417 0 0 1-.597 0 .425.425 0 0 1 0-.598l1.359-1.359a.43.43 0 0 1 .301-.125M11.914 5.367a4.7 4.7 0 0 0-2.715-1.015.42.42 0 0 0-.437.402.417.417 0 0 0 .402.441 3.81 3.81 0 0 1 3.516 2.817 3.81 3.81 0 0 1-1.637 4.199.427.427 0 0 0-.129.586.427.427 0 0 0 .586.129 4.66 4.66 0 0 0 2-5.133h-.004a4.65 4.65 0 0 0-1.582-2.426" style="fill:#069;fill-opacity:1;fill-rule:nonzero;stroke:none" transform="scale(.35278)"/><path d="M8.281 4.781c0-.105.039-.215.125-.297a.42.42 0 0 1 .598 0l1.359 1.356a.43.43 0 0 1 0 .601.424.424 0 0 1-.597 0l-1.36-1.359a.4.4 0 0 1-.125-.301" style="fill:#069;fill-opacity:1;fill-rule:nonzero;stroke:none" transform="scale(.35278)"/><path d="M8.703 5.207a.425.425 0 0 1-.297-.723l1.36-1.359a.417.417 0 0 1 .597 0 .425.425 0 0 1 0 .598L9.004 5.082a.43.43 0 0 1-.301.125" style="fill:#069;fill-opacity:1;fill-rule:nonzero;stroke:none" transform="scale(.35278)"/><path d="M10.84 6.98a.4.4 0 0 0-.274.11c-.754.851-1.507 1.711-2.261 2.566l-.86-.754v.004a.398.398 0 0 0-.687.274.44.44 0 0 0 .082.238h-.004l1.137 1.418a.526.526 0 0 0 .804-.008l2.387-3.215a.4.4 0 0 0 .078-.234.4.4 0 0 0-.402-.399" style="fill:#35e298;fill-opacity:1;fill-rule:nonzero;stroke:none" transform="scale(.35278)"/></svg>

<?xml version="1.0" encoding="UTF-8" standalone="no"?>
<!-- Created with Inkscape (http://www.inkscape.org/) -->

<svg
   width="24"
   height="24"
   viewBox="0 0 6.35 6.3499999"
   version="1.1"
   id="svg3886"
   xml:space="preserve"
   inkscape:version="1.2.2 (b0a8486541, 2022-12-01)"
   sodipodi:docname="icon-update.svg"
   inkscape:export-filename="icon-update.pdf"
   inkscape:export-xdpi="96"
   inkscape:export-ydpi="96"
   xmlns:inkscape="http://www.inkscape.org/namespaces/inkscape"
   xmlns:sodipodi="http://sodipodi.sourceforge.net/DTD/sodipodi-0.dtd"
   xmlns="http://www.w3.org/2000/svg"
   xmlns:svg="http://www.w3.org/2000/svg"><sodipodi:namedview
     id="namedview3888"
     pagecolor="#ffffff"
     bordercolor="#666666"
     borderopacity="1.0"
     inkscape:showpageshadow="2"
     inkscape:pageopacity="0.0"
     inkscape:pagecheckerboard="0"
     inkscape:deskcolor="#d1d1d1"
     inkscape:document-units="mm"
     showgrid="false"
     inkscape:zoom="5.7204263"
     inkscape:cx="-16.69456"
     inkscape:cy="16.170124"
     inkscape:window-width="2560"
     inkscape:window-height="1000"
     inkscape:window-x="1680"
     inkscape:window-y="0"
     inkscape:window-maximized="1"
     inkscape:current-layer="svg3886" /><defs
     id="defs3883"><style
       id="style4619">.cls-1{fill:#069;}.cls-2{fill:#2991c9;}.cls-3{fill:#fff;}.cls-4{fill:#002a44;}.cls-5{fill:#3380cc;}.cls-6{fill:#cc5e55;}</style><radialGradient
       id="paint0_radial_2_129"
       cx="0"
       cy="0"
       r="1"
       gradientUnits="userSpaceOnUse"
       gradientTransform="matrix(0,5.8208333,-5.8208333,0,3.174998,0.264596)"><stop
         stop-color="#FAFAFA"
         id="stop8838" /><stop
         offset="1"
         stop-color="#B0B0B0"
         id="stop8840" /></radialGradient><radialGradient
       id="paint0_radial_29_149"
       cx="0"
       cy="0"
       r="1"
       gradientUnits="userSpaceOnUse"
       gradientTransform="matrix(0,8.4664974,-8.4665063,0,26.659556,4.6030627)"><stop
         stop-color="#80D2FF"
         id="stop17930" /><stop
         offset="1"
         stop-color="#2991C9"
         id="stop17932"
         style="stop-color:#002a43;stop-opacity:1;" /></radialGradient><radialGradient
       id="paint0_radial_29_23"
       cx="0"
       cy="0"
       r="1"
       gradientUnits="userSpaceOnUse"
       gradientTransform="matrix(0,22,-22,0,12,1)"><stop
         stop-color="#8FC8FF"
         id="stop6475" /><stop
         offset="1"
         stop-color="#0056A8"
         id="stop6477" /></radialGradient><radialGradient
       id="paint0_radial_1_40"
       cx="0"
       cy="0"
       r="1"
       gradientUnits="userSpaceOnUse"
       gradientTransform="matrix(0,6.3498749,-6.3498749,0,-13.042008,2.1679009)"><stop
         stop-color="#C2E5FF"
         id="stop7711" /><stop
         offset="1"
         stop-color="#3276AA"
         id="stop7713" /></radialGradient><radialGradient
       fx="0"
       fy="0"
       cx="0"
       cy="0"
       r="1"
       gradientUnits="userSpaceOnUse"
       gradientTransform="matrix(0,16.5,-16.5,0,8.999994,0.750036)"
       spreadMethod="pad"
       id="radialGradient77554"><stop
         style="stop-opacity:1;stop-color:#fafafa"
         offset="0"
         id="stop77550" /><stop
         style="stop-opacity:1;stop-color:#b0b0b0"
         offset="1"
         id="stop77552" /></radialGradient><clipPath
       clipPathUnits="userSpaceOnUse"
       id="clipPath77564"><path
         d="M 0,0 H 19 V 19 H 0 Z"
         id="path77562" /></clipPath><radialGradient
       fx="0"
       fy="0"
       cx="0"
       cy="0"
       r="1"
       gradientUnits="userSpaceOnUse"
       gradientTransform="matrix(0,16.5,-16.5,0,8.999994,0.750036)"
       spreadMethod="pad"
       id="radialGradient77554-8"><stop
         style="stop-opacity:1;stop-color:#fafafa"
         offset="0"
         id="stop77550-1" /><stop
         style="stop-opacity:1;stop-color:#b0b0b0"
         offset="1"
         id="stop77552-2" /></radialGradient><clipPath
       clipPathUnits="userSpaceOnUse"
       id="clipPath77564-9"><path
         d="M 0,0 H 19 V 19 H 0 Z"
         id="path77562-3" /></clipPath></defs><g
     inkscape:label="Camada 1"
     inkscape:groupmode="layer"
     id="layer1" /><g
     id="g77538"
     transform="matrix(0.35277777,0,0,0.35277776,-1.196686e-4,-9.1908352e-6)"><g
       id="g77540"><g
         id="g77542"><g
           id="g77548"><path
             d="M 7.453,0.801 C 7.371,0.824 7.285,0.836 7.195,0.836 6.641,0.879 6.09,0.969 5.547,1.102 3.219,1.656 1.75,3.09 1.141,5.402 0.855,6.582 0.727,7.781 0.754,8.992 c -0.024,1.141 0.09,2.27 0.336,3.383 0.578,2.477 2.113,3.992 4.594,4.543 1.351,0.277 2.714,0.383 4.089,0.309 1.227,-0.02 2.418,-0.227 3.575,-0.618 1.429,-0.523 2.464,-1.476 3.101,-2.859 0.344,-0.797 0.567,-1.625 0.672,-2.488 0.137,-1.231 0.164,-2.461 0.086,-3.696 C 17.148,6.586 16.957,5.629 16.641,4.699 16.078,3.156 15.039,2.07 13.52,1.445 12.605,1.098 11.66,0.887 10.684,0.809 9.609,0.734 8.531,0.73 7.453,0.801 Z"
             style="fill:url(#radialGradient77554-8);fill-rule:evenodd;stroke:none"
             id="path77556" /></g></g></g><g
       id="g77558"><g
         id="g77560" /><g
         id="g77574"><g
           clip-path="url(#clipPath77564-9)"
           opacity="0.225681"
           id="g77572"><g
             id="g77570"><g
               id="g77568"><path
                 d="M 10.043,3 C 9.941,3.008 9.84,3.047 9.766,3.125 L 8.406,4.484 C 8.395,4.496 8.387,4.504 8.375,4.516 8.367,4.527 8.359,4.539 8.352,4.551 8.344,4.562 8.336,4.574 8.328,4.586 c 0,0.004 0,0.004 0,0.008 C 8.32,4.605 8.316,4.613 8.312,4.625 8.309,4.629 8.309,4.637 8.305,4.645 8.301,4.656 8.297,4.668 8.293,4.684 8.277,4.75 8.277,4.82 8.293,4.887 8.297,4.898 8.301,4.91 8.305,4.922 V 4.926 C 8.309,4.93 8.309,4.938 8.312,4.945 8.316,4.949 8.316,4.953 8.32,4.961 8.328,4.98 8.34,5 8.352,5.016 8.359,5.027 8.367,5.039 8.375,5.051 L 8.379,5.055 C 8.383,5.059 8.387,5.062 8.391,5.066 8.395,5.074 8.398,5.078 8.406,5.082 V 5.086 C 8.41,5.09 8.414,5.094 8.422,5.098 l 1.344,1.343 c 0.164,0.168 0.429,0.168 0.597,0 0.164,-0.164 0.164,-0.433 0,-0.597 L 9.797,5.277 c 1.383,0.293 2.508,1.34 2.883,2.739 0.429,1.605 -0.231,3.304 -1.637,4.199 -0.195,0.125 -0.254,0.387 -0.129,0.582 0.125,0.199 0.387,0.258 0.586,0.133 1.711,-1.09 2.523,-3.172 1.996,-5.137 C 13.234,6.812 12.668,5.973 11.914,5.371 11.281,4.863 10.516,4.523 9.688,4.398 l 0.675,-0.671 c 0.164,-0.168 0.164,-0.434 0,-0.602 C 10.273,3.039 10.16,2.996 10.043,3 Z M 6.711,5.008 C 6.637,5.012 6.566,5.031 6.5,5.074 4.789,6.164 3.977,8.246 4.504,10.207 c 0.262,0.981 0.828,1.82 1.582,2.426 0.633,0.508 1.398,0.847 2.226,0.972 l -0.675,0.672 c -0.164,0.168 -0.164,0.434 0,0.598 0.168,0.168 0.433,0.168 0.597,0 l 1.344,-1.34 C 9.586,13.527 9.59,13.523 9.594,13.52 v -0.004 c 0.008,-0.004 0.011,-0.008 0.015,-0.012 0.004,-0.008 0.012,-0.012 0.016,-0.02 0.02,-0.019 0.031,-0.043 0.047,-0.066 v -0.004 c 0,-0.004 0.004,-0.012 0.008,-0.016 0.008,-0.015 0.011,-0.027 0.015,-0.039 0.004,-0.011 0.008,-0.027 0.012,-0.039 0,-0.008 0.004,-0.015 0.004,-0.019 0.004,-0.016 0.004,-0.028 0.008,-0.043 0,-0.024 0,-0.055 0,-0.082 C 9.715,13.164 9.715,13.152 9.711,13.137 9.711,13.133 9.707,13.125 9.707,13.117 9.703,13.105 9.699,13.09 9.695,13.078 9.691,13.066 9.688,13.055 9.68,13.043 V 13.039 C 9.676,13.035 9.672,13.027 9.672,13.023 9.656,12.996 9.641,12.973 9.625,12.949 H 9.621 C 9.617,12.945 9.613,12.938 9.609,12.934 9.605,12.93 9.602,12.926 9.594,12.918 l -1.36,-1.359 c -0.164,-0.164 -0.429,-0.164 -0.597,0 -0.164,0.168 -0.164,0.433 0,0.601 l 0.566,0.567 C 6.82,12.43 5.695,11.387 5.32,9.988 4.891,8.379 5.551,6.684 6.957,5.789 7.152,5.664 7.211,5.402 7.086,5.203 7.008,5.082 6.875,5.012 6.742,5.008 c -0.012,0 -0.023,0 -0.031,0 z m 4.133,1.972 c -0.106,0 -0.203,0.043 -0.278,0.114 C 9.812,7.941 9.059,8.801 8.305,9.656 L 7.445,8.906 C 7.371,8.828 7.266,8.781 7.156,8.781 6.938,8.781 6.758,8.961 6.758,9.18 6.762,9.266 6.789,9.348 6.84,9.418 H 6.836 l 1.137,1.418 c 0.101,0.117 0.246,0.184 0.398,0.184 0.156,0 0.309,-0.071 0.406,-0.192 h 0.004 l 2.383,-3.215 c 0.051,-0.066 0.074,-0.148 0.078,-0.23 0,-0.223 -0.18,-0.403 -0.398,-0.403 z"
                 style="fill:none;stroke:#000000;stroke-width:0.749999;stroke-linecap:round;stroke-linejoin:round;stroke-miterlimit:4;stroke-dasharray:none;stroke-opacity:0.289973"
                 id="path77566" /></g></g></g></g></g><path
       d="m 6.086,12.633 c 0.758,0.601 1.699,0.972 2.715,1.015 C 9.031,13.66 9.23,13.477 9.238,13.246 9.25,13.012 9.07,12.812 8.836,12.805 7.172,12.73 5.754,11.594 5.32,9.988 4.891,8.379 5.551,6.684 6.957,5.789 7.152,5.664 7.211,5.402 7.086,5.203 6.961,5.008 6.699,4.949 6.5,5.074 4.785,6.164 3.977,8.246 4.5,10.207 h 0.004 c 0.262,0.981 0.828,1.82 1.582,2.426 z"
       style="fill:#006699;fill-opacity:1;fill-rule:nonzero;stroke:none"
       id="path77576" /><path
       d="m 9.719,13.219 c 0,0.105 -0.039,0.215 -0.125,0.297 -0.164,0.168 -0.434,0.168 -0.598,0 L 7.637,12.16 c -0.164,-0.168 -0.164,-0.437 0,-0.601 0.168,-0.164 0.433,-0.164 0.597,0 l 1.36,1.359 C 9.68,13 9.719,13.109 9.719,13.219 Z"
       style="fill:#006699;fill-opacity:1;fill-rule:nonzero;stroke:none"
       id="path77578" /><path
       d="m 9.297,12.793 c 0.105,0 0.215,0.043 0.297,0.125 0.168,0.164 0.168,0.434 0,0.598 l -1.36,1.359 c -0.164,0.168 -0.433,0.168 -0.597,0 -0.164,-0.164 -0.164,-0.434 0,-0.598 l 1.359,-1.359 c 0.082,-0.082 0.192,-0.125 0.301,-0.125 z"
       style="fill:#006699;fill-opacity:1;fill-rule:nonzero;stroke:none"
       id="path77580" /><path
       d="M 11.914,5.367 C 11.156,4.766 10.215,4.395 9.199,4.352 8.969,4.34 8.77,4.523 8.762,4.754 8.75,4.988 8.93,5.188 9.164,5.195 c 1.664,0.075 3.082,1.211 3.516,2.817 0.429,1.609 -0.231,3.304 -1.637,4.199 -0.195,0.125 -0.254,0.387 -0.129,0.586 0.125,0.195 0.387,0.254 0.586,0.129 1.715,-1.09 2.523,-3.172 2,-5.133 H 13.496 C 13.234,6.812 12.668,5.973 11.914,5.367 Z"
       style="fill:#006699;fill-opacity:1;fill-rule:nonzero;stroke:none"
       id="path77582" /><path
       d="m 8.281,4.781 c 0,-0.105 0.039,-0.215 0.125,-0.297 0.164,-0.168 0.434,-0.168 0.598,0 l 1.359,1.356 c 0.164,0.168 0.164,0.433 0,0.601 -0.168,0.164 -0.433,0.164 -0.597,0 L 8.406,5.082 C 8.32,5 8.281,4.891 8.281,4.781 Z"
       style="fill:#006699;fill-opacity:1;fill-rule:nonzero;stroke:none"
       id="path77584" /><path
       d="M 8.703,5.207 C 8.598,5.207 8.488,5.164 8.406,5.082 8.238,4.918 8.238,4.648 8.406,4.484 l 1.36,-1.359 c 0.164,-0.168 0.433,-0.168 0.597,0 0.164,0.164 0.164,0.434 0,0.598 L 9.004,5.082 C 8.922,5.164 8.812,5.207 8.703,5.207 Z"
       style="fill:#006699;fill-opacity:1;fill-rule:nonzero;stroke:none"
       id="path77586" /><path
       d="m 10.84,6.98 c -0.102,0 -0.199,0.04 -0.274,0.11 C 9.812,7.941 9.059,8.801 8.305,9.656 L 7.445,8.902 V 8.906 C 7.371,8.824 7.266,8.781 7.156,8.781 6.938,8.781 6.758,8.957 6.758,9.18 6.762,9.266 6.789,9.348 6.84,9.418 H 6.836 l 1.137,1.418 c 0.101,0.117 0.246,0.184 0.398,0.184 0.16,0 0.309,-0.071 0.406,-0.192 l 2.387,-3.215 c 0.051,-0.07 0.074,-0.148 0.078,-0.234 0,-0.219 -0.18,-0.399 -0.402,-0.399 z"
       style="fill:#35e298;fill-opacity:1;fill-rule:nonzero;stroke:none"
       id="path77588" /></g></svg>
